!!!COM: Bach, Johann Sebastian
!!!OPR: Joh. Seb. Bachs vierstimmige Choralgesänge
!!!XEN: Four-part Chorales
!!!OTL: Chorale 142. O Welt, sieh' hier dein Leben
!!!SCT: BWV 395
!!!SCA: Thematisch-systematisches Verzeichnis der musikalischen Werke Johann Sebastian Bach: Bach-Werke-Verzeichnis (Schmieder)
!!!YOR: Bach Gesellschaft Edition xxxix
!!!ENC: Steven Rasmussen
!!!CDT: 1685/3//-1750/7/28/
!!!OCY: Deutschland
!!!YEC: Copyright (c) 1994, 2000 Center for Computer Assisted Research in the Humanities
!!!YEM: Rights to all derivative editions reserved
!!!YEN: United States of America
**kern	**kern	**silbe	**kern	**silbe	**kern	**silbe
*I:[BASSO]	*I:[TENORE]	*I:[TENORE]	*I:[ALTO]	*I:[ALTO]	*I:[SOPRANO]	*I:[SOPRANO]
*clefF4	*clefGv2	*	*clefG2	*	*clefG2	*
*k[f#c#g#]	*k[f#c#g#]	*	*k[f#c#g#]	*	*k[f#c#g#]	*
*A:	*A:	*	*A:	*	*A:	*
*M4/4	*M4/4	*	*M4/4	*	*M4/4	*
4A	4e	.	4a	.	4cc#	O
=1	=1	=1	=1	=1	=1	=1
4d	4d	.	4f#	.	4a	Welt,
8c#L	4d	.	4g#	.	4b	sieh'
8BJ	.	.	.	.	.	.
4.A	8eL	.	8aL	.	8cc#L	hier
.	8dJ	.	8bJ	.	8ddJ	.
.	8c#L	.	4cc#	.	4ee	dein
8Gn	8BJ	.	.	.	.	.
=2	=2	=2	=2	=2	=2	=2
4F#	4A	.	4cc#	.	2dd	Le-
8G#L	4B	.	8bL	.	.	.
8F#J	.	.	8aJ	.	.	.
4E#;	4c#;	.	4g#;	.	4cc#;	-ben
4F#	4A	.	4f#	.	8cc#L	am
.	.	.	.	.	8ddJ	.
=3	=3	=3	=3	=3	=3	=3
8C#L	4A	.	4e	.	4ee	Stamm
8BBJ	.	.	.	.	.	.
8C#L	4e	.	4a	.	4ee	des
8DJ	.	.	.	.	.	.
8EL	4e	.	4g#	.	4b	Kreu-
8DJ	.	.	.	.	.	.
4C#	4e#	.	4g#	.	8cc#L	-zes
.	.	.	.	.	8bJ	.
=4	=4	=4	=4	=4	=4	=4
4F#	4c#	.	8g#L	.	2a	schwe-
.	.	.	8f#	.	.	.
4BB	4B	.	8e	.	.	.
.	.	.	8d#J	.	.	.
4E;	4B;	.	4e;	.	4g#;	-ben,
4D	4G#	.	4B	.	4e	dein
=5	=5	=5	=5	=5	=5	=5
4C#	4A	.	4e	.	4a	Heil
4BB	4d	.	8f#L	.	4b	sinkt
.	.	.	8g#J	.	.	.
4AA	4e	.	8aL	.	8cc#L	in
.	.	.	16bL	.	16ddL	.
.	.	.	16cc#JJ	.	16eeJJ	.
4D	4f#	.	8bL	.	8ddL	den
.	.	.	8aJ	.	8cc#J	.
=6	=6	=6	=6	=6	=6	=6
2.E;	2.B;	.	2.g#;	.	2.b;	Tod!
4E#	4G#	.	4g#	.	4cc#	Der
=7	=7	=7	=7	=7	=7	=7
4F#	4c#	.	4.f#	.	4a	gro-
4G#	4B	.	.	.	4b	-sse
.	.	.	8e	.	.	.
4A	8AL	.	4e	.	8cc#L	Fürst
.	8BJ	.	.	.	8ddJ	.
4A#	4c#	.	4f#	.	4ee	der
=8	=8	=8	=8	=8	=8	=8
2B	4B	.	4f#	.	2dd	Eh-
.	4G#	.	4e#	.	.	.
4F#;	4A#;	.	4f#;	.	4cc#;	-ren
4F#	4An	.	4f#	.	8cc#L	lÃ¤sst
.	.	.	.	.	8ddJ	.
=9	=9	=9	=9	=9	=9	=9
8C#L	4A	.	4e	.	4ee	wil-
8BBJ	.	.	.	.	.	.
4C#	4A	.	8aL	.	4ee	-lig
.	.	.	8g#J	.	.	.
4D#	4A	.	4f#	.	4b	sich
4E	4G#	.	8eL	.	4cc#	be-
.	.	.	16d#L	.	.	.
.	.	.	16c#JJ	.	.	.
=10	=10	=10	=10	=10	=10	=10
(4E	(4c#	.	2f#	.	2a	-schwe-
4D#)	4B)	.	.	.	.	.
4E;	4B;	.	4e;	.	4g#;	-ren
4Dn	4G#	.	4B	.	4e	mit
=11	=11	=11	=11	=11	=11	=11
4C#	4A	.	4e	.	4a	SchlÃ¤-
4BB	4d	.	8f#L	.	4b	-gen,
.	.	.	8g#J	.	.	.
8AAL	4.e	Hohn	[2a	Hohn	8cc#L	Hohn
8BBJ	.	.	.	.	8ddJ	.
8C#L	.	.	.	.	8eeL	und
8DJ	8f#	und	.	.	8ddJ	.
=12	=12	=12	=12	=12	=12	=12
4E	4e	gro-	4a]	.	4cc#	gro-
4E	4d	-ssem	4g#	und	4b	-ssem
4AA;	4c#;	Spott.	4e;	Spott.	4a;	Spott.
==|!	==|!	==|!	==|!	==|!	==|!	==|!
*-	*-	*-	*-	*-	*-	*-
!!!RWG: Key is interpreted using the Humdrum key tool.
!!!URL-pdf: https://s9.imslp.org/files/imglnks/usimg/6/6b/IMSLP24489-PMLP09471-CCARH_Bach_Chorales.pdf#page=100 Musedata edition
!!!URL-pdf: https://s9.imslp.org/files/imglnks/usimg/7/7a/IMSLP04155-Bach_-_BGA_253-438.pdf#page=78 	Bach-Gesellschaft Ausgabe, Band 39 (pp.175-276) Leipzig: Breitkopf und Härtel, 1892. Plate B.W. XXXIX.
!!!END: 1994/07/27
!!!EMD: Converted from MuseData to Humdrum Dec 19, 2000, by Andreas Kornstaedt using muse2kern.
!!!EED: Craig Stuart Sapp
!!!EEV: 2024/03/31
!!!filter-keyboard: satb2gs
!!!title: @{OTL} (@{SCT})
